X:0466
T:Dutch Skipper.
M:C
L:1/8
Q:1/2=104
N:bar 2 is printed |TB4 A2 B/c/|
I: :: :: ||
Z:Jack Campin * www.campin.me.uk * 2009
K:D
(3ABc|d4    c3   d |TB4 A3B/c/|d2c2  d2e2|f3e defg|a4 d3e|f`ede  e3d|d6::
  de |f2f2  gfed   | c6  cd   |e2a^g fedc|B4  c3 d|e4 A3B|cTBAB  B3A|A6::
  de |f2f2 (gf)(ed)| g6  fg   |a2g`f g2a2|b4  f3 g|a4 d3e|f`ede Te3d|d4:|

